_dev/assets/images/contact-linkedin.svg

<svg width="105px" height="101px" viewBox="0 0 105 101" version="1.1" xmlns='http://www.w3.org/2000/svg' xmlns:xlink='http://www.w3.org/1999/xlink'>
    <g id="Welcome" stroke="none" stroke-width="1" fill="none" fill-rule="evenodd">
        <g id="Desktop" transform="translate(-469.000000, -488.000000)" fill-rule="nonzero" fill="#2B4252">
            <g id="linkedin-logo" transform="translate(469.000000, 488.000000)">
                <path d="M105,61.7256241 L105,100.481459 L82.4951002,100.481459 L82.4951002,64.3212562 C82.4951002,55.2375186 79.2400091,49.0382228 71.0939814,49.0382228 C64.8755222,49.0382228 61.1749129,53.2160939 59.5468791,57.2574809 C58.9531802,58.702261 58.8003613,60.7132057 58.8003613,62.7356053 L58.8003613,100.481459 L36.2878938,100.481459 C36.2878938,100.481459 36.5910903,39.2379444 36.2878938,32.8926596 L58.7981642,32.8926596 L58.7981642,42.4731014 C58.7525139,42.5447554 58.6931928,42.6220151 58.6502277,42.6914757 L58.7981642,42.6914757 L58.7981642,42.4731014 C61.7888737,37.8743236 67.129967,31.3048152 79.0849932,31.3048152 C93.8964631,31.3045714 105,40.9649538 105,61.7256241 Z M12.7388943,0.311504854 C5.03740843,0.311504854 0,5.35483033 0,11.9869751 C0,18.4745932 4.89166901,23.6709757 12.4400919,23.6709757 L12.5904696,23.6709757 C20.4411125,23.6709757 25.323505,18.4755681 25.323505,11.9869751 C25.1755685,5.35483033 20.4411125,0.311504854 12.7388943,0.311504854 Z M1.33704318,100.481459 L23.8409665,100.481459 L23.8409665,32.8926596 L1.33704318,32.8926596 L1.33704318,100.481459 Z" id="LinkedIn"></path>
            </g>
        </g>
    </g>
</svg>

<?xml version="1.0" encoding="UTF-8"?>
<svg version="1.1" viewBox="0 0 105 101" xmlns="http://www.w3.org/2000/svg">
<g fill="none" fill-rule="evenodd">
<g transform="translate(-469 -488)" fill="#2B4252" fill-rule="nonzero">
<g transform="translate(469 488)">
<path d="m105 61.726v38.756h-22.505v-36.16c0-9.0837-3.2551-15.283-11.401-15.283-6.2185 0-9.9191 4.1779-11.547 8.2193-0.5937 1.4448-0.74652 3.4557-0.74652 5.4781v37.746h-22.512s0.3032-61.244 0-67.589h22.51v9.5804c-0.04565 0.071654-0.10497 0.14891-0.14794 0.21837h0.14794v-0.21837c2.9907-4.5988 8.3318-11.168 20.287-11.168 14.811-2.438e-4 25.915 9.6601 25.915 30.421zm-92.261-61.414c-7.7015 0-12.739 5.0433-12.739 11.675 0 6.4876 4.8917 11.684 12.44 11.684h0.15038c7.8506 0 12.733-5.1954 12.733-11.684-0.14794-6.6321-4.8824-11.675-12.585-11.675zm-11.402 100.17h22.504v-67.589h-22.504v67.589z"/>
</g>
</g>
</g>
</svg>
